icon/pk/copy-link.svg

<svg viewBox="0 0 48 48" fill="none" xmlns="http://www.w3.org/2000/svg" height="1em" width="1em">
  <path d="M12 9.92704V7C12 5.34315 13.3431 4 15 4H41C42.6569 4 44 5.34315 44 7V33C44 34.6569 42.6569 36 41 36H38.0174" stroke="black" stroke-width="4"/>
  <rect x="4" y="10" width="34" height="34" rx="3" fill="#2F88FF" stroke="black" stroke-width="4" stroke-linejoin="round"/>
  <path d="M18.4394 23.1101L23.7319 17.6006C25.1835 16.1489 27.5691 16.1809 29.0602 17.672C30.5513 19.1631 30.5833 21.5487 29.1316 23.0003L27.2215 25.0231" stroke="white" stroke-width="4" stroke-linecap="round" stroke-linejoin="round"/>
  <path d="M13.4661 28.7472C12.9558 29.2575 11.9006 30.2765 11.9006 30.2765C10.4489 31.7281 10.4095 34.3155 11.9006 35.8066C13.3917 37.2977 15.7772 37.3296 17.2289 35.878L22.3931 31.1896" stroke="white" stroke-width="4" stroke-linecap="round" stroke-linejoin="round"/>
  <path d="M18.6626 28.3284C17.97 27.6358 17.5922 26.7502 17.5317 25.8548C17.4619 24.8226 17.8138 23.7774 18.5912 23.0001" stroke="white" stroke-width="4" stroke-linecap="round" stroke-linejoin="round"/>
  <path d="M22.3213 25.8613C23.8124 27.3524 23.8444 29.738 22.3927 31.1896" stroke="white" stroke-width="4" stroke-linecap="round" stroke-linejoin="round"/>
</svg>

<svg width="48" height="48" fill="none" xmlns="http://www.w3.org/2000/svg"><path d="M12 9.927V7a3 3 0 0 1 3-3h26a3 3 0 0 1 3 3v26a3 3 0 0 1-3 3h-2.983" stroke="#000" stroke-width="4"/><rect x="4" y="10" width="34" height="34" rx="3" fill="#2F88FF" stroke="#000" stroke-width="4" stroke-linejoin="round"/><path d="m18.44 23.11 5.292-5.51c1.451-1.451 3.837-1.42 5.328.072 1.491 1.491 1.523 3.877.072 5.328l-1.91 2.023M13.466 28.747c-.51.51-1.565 1.53-1.565 1.53-1.452 1.451-1.492 4.038 0 5.53 1.49 1.49 3.876 1.523 5.328.071l5.164-4.688" stroke="#fff" stroke-width="4" stroke-linecap="round" stroke-linejoin="round"/><path d="M18.663 28.328a3.863 3.863 0 0 1-1.131-2.473A3.665 3.665 0 0 1 18.592 23M22.321 25.861c1.491 1.491 1.523 3.877.072 5.329" stroke="#fff" stroke-width="4" stroke-linecap="round" stroke-linejoin="round"/></svg>
